X: 16237
T: Greenwood Tree, The
R: waltz
M: 3/4
K: Gmajor
|:D2|B2 (3BcB A2|G4 F>G|E2- E>F G>E|D2 B,2- B,>C|
D2- D>E D>B,|D2 G2- G>A|1 B2- B>c B2|A4:|2 B2 c2 F2|G4||
B,2|E2 E2 F2|G4 B,2|G4 F>E|D2 B,2 B,>C|
D2 D>E D>B,|D2 G2 A2|B2- B>A G2|A4 d>c|
B2- B>c B>A|G2- G>D G>F|E2 E>F (3GFE|D4 (3A,B,C|
D2 D>E D>B,|D2 G2 A2|B<c- c2 F2|G4||

